X: 19516
T: Jacqueline, The
R: waltz
M: 3/4
K: Amajor
|:E/E/|EA Ac cE/E/|EA Ac ce|ed dB BG|G4- GE|
EG GB BE/E/|EG GB Bf|fe ^de fe|c4- cE/E/|
EA Ac cE/E/|EA Ac ce|ed dB BF|F4- F^E|
E/E/E GE BE|dE cE BE|{/AB} AE cA ec|a4- a:|
|:A/A/|Aa ag fe|^de fe de|G6-|G4- GG/G/|
Gg gf e^d|fe ^de fe|A/B/A GA ce|a4- aA/A/|
Ac' c'b ag|ba ga ba|f6-|f2 e2 d2|
F2 ^E2 F2|d2 c2- cB|A/B/A GA ce|a4- a:|

